source/img/vacancies/vac-d__location.svg

<svg width="16" height="21" viewBox="0 0 16 21" fill="none" xmlns="http://www.w3.org/2000/svg">
<path fill-rule="evenodd" clip-rule="evenodd" d="M8 20.4141C8 20.4141 16 13.7487 16 8.39531C16 4.04187 12.3636 0.414062 8 0.414062C3.53247 0.414062 0 3.93822 0 8.39531C0 13.8524 8 20.4141 8 20.4141ZM8 1.41406C4.08254 1.41406 1 4.49272 1 8.39531C1 9.52704 1.41949 10.7907 2.129 12.0986C2.83331 13.397 3.78507 14.669 4.75777 15.7986C5.72776 16.925 6.70076 17.8893 7.43254 18.5727C7.64257 18.7688 7.83219 18.9413 7.99551 19.0874C8.15997 18.9385 8.35124 18.7624 8.56328 18.562C9.29572 17.8701 10.2696 16.8955 11.2404 15.7618C12.2141 14.6248 13.1668 13.3485 13.8717 12.0536C14.5826 10.7478 15 9.49826 15 8.39531C15 4.59637 11.8136 1.41406 8 1.41406Z" fill="black"/>
<path fill-rule="evenodd" clip-rule="evenodd" d="M8 10.4141C9.10457 10.4141 10 9.51863 10 8.41406C10 7.30949 9.10457 6.41406 8 6.41406C6.89543 6.41406 6 7.30949 6 8.41406C6 9.51863 6.89543 10.4141 8 10.4141ZM8 11.4141C9.65685 11.4141 11 10.0709 11 8.41406C11 6.75721 9.65685 5.41406 8 5.41406C6.34315 5.41406 5 6.75721 5 8.41406C5 10.0709 6.34315 11.4141 8 11.4141Z" fill="black"/>
</svg>

<svg width="16" height="21" fill="none" xmlns="http://www.w3.org/2000/svg"><path fill-rule="evenodd" clip-rule="evenodd" d="M8 20.414s8-6.665 8-12.019c0-4.353-3.636-7.98-8-7.98-4.468 0-8 3.523-8 7.98 0 5.457 8 12.02 8 12.02zm0-19c-3.917 0-7 3.079-7 6.981 0 1.132.42 2.396 1.129 3.704.704 1.298 1.656 2.57 2.629 3.7a36.098 36.098 0 003.238 3.288 37.306 37.306 0 003.245-3.326c.973-1.136 1.926-2.413 2.63-3.707C14.584 10.748 15 9.498 15 8.395c0-3.799-3.186-6.98-7-6.98z" fill="#000"/><path fill-rule="evenodd" clip-rule="evenodd" d="M8 10.414a2 2 0 100-4 2 2 0 000 4zm0 1a3 3 0 100-6 3 3 0 000 6z" fill="#000"/></svg>
